lib/radiotmp/nrk-media-speed-2x.svg

<svg width="40" height="24" viewBox="0 0 40 24" fill="none" xmlns="http://www.w3.org/2000/svg">
<path d="M12.3682 17.4001L12.0682 16.1851C13.1082 15.3351 13.9982 14.5551 14.7382 13.8451C15.4782 13.1351 16.0432 12.4701 16.4332 11.8501C16.8232 11.2201 17.0182 10.6151 17.0182 10.0351C17.0182 9.4951 16.8432 9.0701 16.4932 8.7601C16.1532 8.4401 15.6382 8.2801 14.9482 8.2801C14.4782 8.2801 14.0232 8.3501 13.5832 8.4901C13.1432 8.6201 12.7482 8.7951 12.3982 9.0151L12.1732 7.3501C12.6132 7.1201 13.0882 6.9401 13.5982 6.8101C14.1082 6.6701 14.6632 6.6001 15.2632 6.6001C16.1532 6.6001 16.8882 6.7301 17.4682 6.9901C18.0582 7.2501 18.4932 7.6051 18.7732 8.0551C19.0632 8.4951 19.2082 8.9951 19.2082 9.5551C19.2082 10.0951 19.0782 10.6451 18.8182 11.2051C18.5682 11.7551 18.2282 12.3001 17.7982 12.8401C17.3782 13.3701 16.9032 13.8801 16.3732 14.3701C15.8532 14.8601 15.3232 15.3051 14.7832 15.7051H19.4782L19.2232 17.4001H12.3682Z" fill="black"/>
<path d="M20.0718 17.4001L22.7568 13.5301L20.2818 9.9151L22.3668 9.3901L24.0168 12.3151L25.5468 9.6451H27.9168L25.2618 13.4401L27.9318 17.4001H25.5768L23.9568 14.6851L22.3668 17.4001H20.0718Z" fill="black"/>
</svg>

<svg xmlns="http://www.w3.org/2000/svg" viewBox="0 0 40 24"><path fill="#000" d="m12.368 17.4-.3-1.215c1.04-.85 1.93-1.63 2.67-2.34s1.305-1.375 1.695-1.995c.39-.63.585-1.235.585-1.815 0-.54-.175-.965-.525-1.275-.34-.32-.855-.48-1.545-.48-.47 0-.925.07-1.365.21-.44.13-.835.305-1.185.525l-.225-1.665c.44-.23.915-.41 1.425-.54.51-.14 1.065-.21 1.665-.21.89 0 1.625.13 2.205.39.59.26 1.025.615 1.305 1.065.29.44.435.94.435 1.5 0 .54-.13 1.09-.39 1.65-.25.55-.59 1.095-1.02 1.635-.42.53-.895 1.04-1.425 1.53-.52.49-1.05.935-1.59 1.335h4.695l-.255 1.695h-6.855ZM20.072 17.4l2.685-3.87-2.475-3.615 2.085-.525 1.65 2.925 1.53-2.67h2.37l-2.655 3.795 2.67 3.96h-2.355l-1.62-2.715-1.59 2.715h-2.295Z"/></svg>
